packages/katcn/src/icons/svg/passport-solid.svg

<svg width="24" height="24" viewBox="0 0 24 24" fill="none" xmlns="http://www.w3.org/2000/svg">
<path d="M16.4 4.5H6.8C6.6 4.5 6.4 4.4 6.3 4.3C6.1 4.2 6 4 6 3.8C6 3.3 6.3 3 6.8 3H18.2C18.8 3 19.2 2.6 19.2 2C19.2 1.4 18.8 1 18.2 1H6.8C5.2 1 4 2.2 4 3.8V19.4C4 21.4 5.6 23 7.6 23H16.4C18.4 23 20 21.4 20 19.4V8.1C20 6.1 18.4 4.5 16.4 4.5Z" fill="black"/>
<path d="M12 14.2C13.7121 14.2 15.1 12.8121 15.1 11.1C15.1 9.38792 13.7121 8 12 8C10.2879 8 8.90002 9.38792 8.90002 11.1C8.90002 12.8121 10.2879 14.2 12 14.2Z" fill="white"/>
<path d="M13.8 18.3H10.3C9.69999 18.3 9.29999 17.9 9.29999 17.3C9.29999 16.7 9.69999 16.3 10.3 16.3H13.8C14.4 16.3 14.8 16.7 14.8 17.3C14.8 17.9 14.3 18.3 13.8 18.3Z" fill="white"/>
</svg>

<svg xmlns="http://www.w3.org/2000/svg" fill="none" viewBox="0 0 24 24"><path fill="#000" d="M16.4 4.5H6.8c-.2 0-.4-.1-.5-.2-.2-.1-.3-.3-.3-.5 0-.5.3-.8.8-.8h11.4c.6 0 1-.4 1-1s-.4-1-1-1H6.8C5.2 1 4 2.2 4 3.8v15.6c0 2 1.6 3.6 3.6 3.6h8.8c2 0 3.6-1.6 3.6-3.6V8.1c0-2-1.6-3.6-3.6-3.6"/><path fill="#fff" d="M12 14.2A3.1 3.1 0 1 0 12 8a3.1 3.1 0 0 0 0 6.2m1.8 4.1h-3.5c-.6 0-1-.4-1-1s.4-1 1-1h3.5c.6 0 1 .4 1 1s-.5 1-1 1"/></svg>
